dist/images/icon-rent-2.svg

<svg xmlns="http://www.w3.org/2000/svg" width="54" height="52" fill="#fff"><path d="M8.297 12.115c.444 0 .804.362.804.809 0 .447-.36.809-.804.809a.807.807 0 01-.805-.809c0-.447.36-.809.805-.809zm8.663 16.522h14.516c.406 0 .735.332.735.739v5.817h6.466v.009h.519c.405 0 .734.33.734.738v13.359c0 .407-.329 1.081-.734 1.081H16.96c-1.269 0-1.599-.674-1.599-1.081V29.376c0-.407.33-.739 1.599-.739zm13.782 1.478h-6.235v5.078h6.235v-5.078zm-7.442 0h-6.469v5.078H23.3v-5.078zm-6.469 6.291v5.289H23.3v-5.289h-6.469zm0 6.502v5.653H23.3v-5.653h-6.469zm7.676 5.653h6.652v-5.653h-6.652v5.653zm7.858 0h6.096v-5.653h-6.096v5.653zm6.096-6.866v-5.016h-6.096v5.016h6.096zm-7.302 0v-5.289h-6.652v5.289h6.652zm-12.47 2.271h2.599c.188 0 .341.154.341.342v.871a.342.342 0 01-.341.342h-2.599a.342.342 0 01-.34-.342v-.871c0-.188.153-.342.34-.342zm7.735 0h2.806c-.019 0 .134.154.134.342v.871c0 .188-.153.342-.134.342h-2.806c-.187 0 .416-.154.416-.342v-.871c0-.188-.603-.342-.416-.342zm7.735 0h2.6c.187 0 1.221.154 1.221.342v.871c0 .188-1.034.342-1.221.342h-2.6a.342.342 0 01-.34-.342v-.871c0-.188.153-.342.34-.342zm0-6.502h2.6c.187 0 1.221.154 1.221.342v.871c0 .189-1.034.523-1.221.523h-2.6c-.187 0-.34-.334-.34-.523v-.871c0-.188.153-.342.34-.342zm-7.735 0h2.806c-.019 0 .134.154.134.342v.871c0 .189-.153.523-.134.523h-2.806c-.187 0 .416-.334.416-.523v-.871c0-.188-.603-.342-.416-.342zm-7.735 0h2.599c.188 0 .341.154.341.342v.871c0 .189-.153.523-.341.523h-2.599c-.187 0-.34-.334-.34-.523v-.871c0-.188.153-.342.34-.342zm0-5.594h2.599c.188 0 .341-.629.341-.441v.871a.342.342 0 01-.341.342h-2.599a.342.342 0 01-.34-.342v-.871c0-.188.153.441.34.441zm7.735 0h2.806c-.019 0 .134-.629.134-.441v.871c0 .188-.153.342-.134.342h-2.806c-.187 0 .416-.154.416-.342v-.871c0-.188-.603.441-.416.441zm14.862-7.18H13.963v-1.327h27.323v1.327zm-27.323 1.477h27.323v22.705c0 1.709 1.394 3.112 3.094 3.112h1.25c1.144-.023 2.528-1.38 2.528-3.112V23.363l3.122-.001c1.381 0 2.718-1.182 2.718-2.987 0-1.042-.552-1.897-1.306-2.642-.497-.491-1.082-.934-1.302-1.353L28.817.206c-.367-.101-1.339.564-1.669.036L11.504 9.837c-.821.702.242 1.96 1.064 2.113L28 1.681l23.777 17.502c0-.062.571.638.571 1.192 0 .732-.594 1.328-1.068 1.328l-3.948.001c-.456 0-.825 1.046-.825.83v26.338c0 .791-.641 1.442-.687 1.451h-1.44a1.449 1.449 0 01-1.444-1.451V22.534c0 .216-.369-.83-.825-.83H13.138c-.456 0-.825 1.046-.825.83v26.338c0 .8-.648 1.451-1.444 1.451h-.665a1.45 1.45 0 01-1.444-1.451V22.534c0 .216-.37-.83-.825-.83H2.964c-.726 0-1.32-.597-1.32-1.328 0-.996 2.689-2.867 3.745-3.771.821-.702-.241-1.96-1.064-1.257C2.743 16.702.5 18.1.5 20.376c0 1.804.832 2.987 2.464 2.987H7.11v25.509c0 1.697 1.374 3.092 3.057 3.112h.702c1.7 0 3.094-1.403 3.094-3.112V26.167z"/></svg>

<svg xmlns="http://www.w3.org/2000/svg" width="54px" height="52px" viewBox="0 0 54 52" fill="#ffffff">
<path d="M8.297,12.115 C8.741,12.115 9.101,12.477 9.101,12.924 C9.101,13.371 8.741,13.733 8.297,13.733 C7.852,13.733 7.492,13.371 7.492,12.924 C7.492,12.477 7.852,12.115 8.297,12.115 L8.297,12.115 ZM16.96,28.637 L25.155,28.637 L30.862,28.637 L31.476,28.637 C31.882,28.637 32.211,28.969 32.211,29.376 L32.211,35.193 L38.677,35.193 L38.677,35.202 L39.196,35.202 C39.601,35.202 39.930,35.532 39.930,35.940 L39.930,36.48 L39.930,42.157 L39.930,49.299 C39.930,49.706 39.601,50.38 39.196,50.38 L16.96,50.38 C15.691,50.38 15.361,49.706 15.361,49.299 L15.361,29.376 C15.361,28.969 15.691,28.637 16.96,28.637 L16.96,28.637 ZM30.742,30.115 L25.155,30.115 L24.507,30.115 L24.507,35.193 L30.742,35.193 L30.742,30.115 L30.742,30.115 ZM23.300,30.115 L16.831,30.115 L16.831,35.193 L23.300,35.193 L23.300,30.115 L23.300,30.115 ZM16.831,36.406 L16.831,41.695 L23.300,41.695 L23.300,36.406 L16.831,36.406 L16.831,36.406 ZM16.831,42.908 L16.831,48.561 L23.300,48.561 L23.300,42.908 L16.831,42.908 L16.831,42.908 ZM24.507,48.561 L31.159,48.561 L31.159,42.908 L24.507,42.908 L24.507,48.561 L24.507,48.561 ZM32.365,48.561 L38.461,48.561 L38.461,42.908 L32.365,42.908 L32.365,48.561 L32.365,48.561 ZM38.461,41.695 L38.461,36.679 L32.365,36.679 L32.365,41.695 L38.461,41.695 L38.461,41.695 ZM31.159,41.695 L31.159,36.406 L24.507,36.406 L24.507,41.695 L31.159,41.695 L31.159,41.695 ZM18.689,43.966 L21.288,43.966 C21.476,43.966 21.629,44.120 21.629,44.308 L21.629,45.179 C21.629,45.367 21.476,45.521 21.288,45.521 L18.689,45.521 C18.502,45.521 18.349,45.367 18.349,45.179 L18.349,44.308 C18.349,44.120 18.502,43.966 18.689,43.966 L18.689,43.966 ZM26.424,43.966 L29.23,43.966 C29.211,43.966 29.364,44.120 29.364,44.308 L29.364,45.179 C29.364,45.367 29.211,45.521 29.23,45.521 L26.424,45.521 C26.237,45.521 26.84,45.367 26.84,45.179 L26.84,44.308 C26.84,44.120 26.237,43.966 26.424,43.966 L26.424,43.966 ZM34.159,43.966 L36.759,43.966 C36.946,43.966 37.98,44.120 37.98,44.308 L37.98,45.179 C37.98,45.367 36.946,45.521 36.759,45.521 L34.159,45.521 C33.972,45.521 33.819,45.367 33.819,45.179 L33.819,44.308 C33.819,44.120 33.972,43.966 34.159,43.966 L34.159,43.966 ZM34.159,37.464 L36.759,37.464 C36.946,37.464 37.98,37.618 37.98,37.806 L37.98,38.677 C37.98,38.866 36.946,39.20 36.759,39.20 L34.159,39.20 C33.972,39.20 33.819,38.866 33.819,38.677 L33.819,37.806 C33.819,37.618 33.972,37.464 34.159,37.464 L34.159,37.464 ZM26.424,37.464 L29.23,37.464 C29.211,37.464 29.364,37.618 29.364,37.806 L29.364,38.677 C29.364,38.866 29.211,39.20 29.23,39.20 L26.424,39.20 C26.237,39.20 26.84,38.866 26.84,38.677 L26.84,37.806 C26.84,37.618 26.237,37.464 26.424,37.464 L26.424,37.464 ZM18.689,37.464 L21.288,37.464 C21.476,37.464 21.629,37.618 21.629,37.806 L21.629,38.677 C21.629,38.866 21.476,39.20 21.288,39.20 L18.689,39.20 C18.502,39.20 18.349,38.866 18.349,38.677 L18.349,37.806 C18.349,37.618 18.502,37.464 18.689,37.464 L18.689,37.464 ZM18.689,31.87 L21.288,31.87 C21.476,31.87 21.629,31.241 21.629,31.429 L21.629,32.300 C21.629,32.488 21.476,32.642 21.288,32.642 L18.689,32.642 C18.502,32.642 18.349,32.488 18.349,32.300 L18.349,31.429 C18.349,31.241 18.502,31.87 18.689,31.87 L18.689,31.87 ZM26.424,31.87 L29.23,31.87 C29.211,31.87 29.364,31.241 29.364,31.429 L29.364,32.300 C29.364,32.488 29.211,32.642 29.23,32.642 L26.424,32.642 C26.237,32.642 26.84,32.488 26.84,32.300 L26.84,31.429 C26.84,31.241 26.237,31.87 26.424,31.87 L26.424,31.87 ZM41.286,24.690 L38.572,24.690 L13.963,24.690 L13.963,23.363 C23.71,23.363 32.178,23.363 41.286,23.363 L41.286,24.690 L41.286,24.690 ZM13.963,26.167 L41.286,26.167 L41.286,48.872 C41.286,50.581 42.680,51.984 44.380,51.984 L45.63,51.984 C46.774,51.961 48.158,50.604 48.158,48.872 L48.158,23.363 L51.28,23.362 C52.661,23.362 53.998,22.18 53.998,20.375 C53.998,19.333 53.446,18.478 52.692,17.733 C52.195,17.242 51.610,16.799 51.39,16.380 L28.817,0.206 C28.450,0.105 27.478,0.77 27.148,0.242 L11.504,9.837 C10.683,10.539 11.746,11.797 12.568,11.95 L28.0,1.681 L51.777,19.183 C51.777,19.121 52.348,19.821 52.348,20.375 C52.348,21.107 51.754,21.703 51.28,21.703 L47.332,21.704 C46.876,21.704 46.507,22.75 46.507,22.534 L46.507,48.872 C46.507,49.663 45.866,50.314 45.82,50.323 L44.380,50.323 C43.583,50.323 42.936,49.672 42.936,48.872 L42.936,22.534 C42.936,22.75 42.567,21.704 42.111,21.704 C32.453,21.704 22.796,21.704 13.138,21.704 C12.682,21.704 12.313,22.75 12.313,22.534 L12.313,48.872 C12.313,49.672 11.665,50.323 10.869,50.323 L10.204,50.323 C9.408,50.323 8.760,49.672 8.760,48.872 L8.760,22.534 C8.760,22.75 8.390,21.704 7.935,21.704 L2.964,21.704 C2.238,21.704 1.644,21.107 1.644,20.376 C1.644,19.38 4.333,17.509 5.389,16.605 C6.210,15.903 5.148,14.645 4.325,15.348 C2.743,16.702 0.5,18.1 0.5,20.376 C0.5,22.18 1.332,23.363 2.964,23.363 L7.110,23.363 L7.110,48.872 C7.110,50.569 8.484,51.964 10.167,51.984 L10.869,51.984 C12.569,51.984 13.963,50.581 13.963,48.872 L13.963,26.167 L13.963,26.167 Z"/>
